resources/svg/password.svg

<svg width="15" height="15" viewBox="0 0 15 15" fill="none" xmlns="http://www.w3.org/2000/svg">
<path d="M11 11H10V10H11V11Z" fill="black"/>
<path d="M8 11H9V10H8V11Z" fill="black"/>
<path d="M13 11H12V10H13V11Z" fill="black"/>
<path fill-rule="evenodd" clip-rule="evenodd" d="M3 6V3.5C3 1.567 4.567 0 6.5 0C8.433 0 10 1.567 10 3.5V6H11.5C12.3284 6 13 6.67157 13 7.5V8.05001C14.1411 8.28164 15 9.29052 15 10.5C15 11.7095 14.1411 12.7184 13 12.95V13.5C13 14.3284 12.3284 15 11.5 15H1.5C0.671573 15 0 14.3284 0 13.5V7.5C0 6.67157 0.671573 6 1.5 6H3ZM4 3.5C4 2.11929 5.11929 1 6.5 1C7.88071 1 9 2.11929 9 3.5V6H4V3.5ZM8.5 9C7.67157 9 7 9.67157 7 10.5C7 11.3284 7.67157 12 8.5 12H12.5C13.3284 12 14 11.3284 14 10.5C14 9.67157 13.3284 9 12.5 9H8.5Z" fill="black"/>
</svg>

<svg viewBox="0 0 15 15" fill="none" xmlns="http://www.w3.org/2000/svg" fill="currentColor"><path d="M11 11h-1v-1h1v1zm-3 0h1v-1H8v1zm5 0h-1v-1h1v1z" fill="currentColor"/><path fill-rule="evenodd" clip-rule="evenodd" d="M3 6V3.5a3.5 3.5 0 117 0V6h1.5A1.5 1.5 0 0113 7.5v.55a2.5 2.5 0 010 4.9v.55a1.5 1.5 0 01-1.5 1.5h-10A1.5 1.5 0 010 13.5v-6A1.5 1.5 0 011.5 6H3zm1-2.5a2.5 2.5 0 015 0V6H4V3.5zM8.5 9a1.5 1.5 0 100 3h4a1.5 1.5 0 000-3h-4z" fill="currentColor"/></svg>
